icons/photorec.svg

<!--
  - The MIT License (MIT)
  -
  - Copyright (c) 2015-2024 Elior "Mallowigi" Boukhobza
  -
  - Permission is hereby granted, free of charge, to any person obtaining a copy
  - of this software and associated documentation files (the "Software"), to deal
  - in the Software without restriction, including without limitation the rights
  - to use, copy, modify, merge, publish, distribute, sublicense, and/or sell
  - copies of the Software, and to permit persons to whom the Software is
  - furnished to do so, subject to the following conditions:
  -
  - The above copyright notice and this permission notice shall be included in all
  - copies or substantial portions of the Software.
  -
  - THE SOFTWARE IS PROVIDED "AS IS", WITHOUT WARRANTY OF ANY KIND, EXPRESS OR
  - IMPLIED, INCLUDING BUT NOT LIMITED TO THE WARRANTIES OF MERCHANTABILITY,
  - FITNESS FOR A PARTICULAR PURPOSE AND NONINFRINGEMENT. IN NO EVENT SHALL THE
  - AUTHORS OR COPYRIGHT HOLDERS BE LIABLE FOR ANY CLAIM, DAMAGES OR OTHER
  - LIABILITY, WHETHER IN AN ACTION OF CONTRACT, TORT OR OTHERWISE, ARISING FROM,
  - OUT OF OR IN CONNECTION WITH THE SOFTWARE OR THE USE OR OTHER DEALINGS IN THE
  - SOFTWARE.
  -
  -->

<svg  version="1.1" xmlns="http://www.w3.org/2000/svg" viewBox="0 0 512 512" width="16px" height="16px">
  <path fill="#097291" data-iconColor="PhotoRec"
        d="M127.711113,477.5468445c-170.2814331-98.1691284-170.2814941-344.92453-0.000061-443.093689S512,59.6616783,512,256S297.9925537,575.7160034,127.711113,477.5468445z M462.9537354,255.9998016c0-158.7224731-173.0064697-258.462616-310.6641846-179.1013794s-137.6576996,278.8415222,0.0000458,358.2027283S462.9537354,414.7222595,462.9537354,255.9998016z M390.0280762,381.7067261l-49.8433533-45.4266968l3.8821411-4.253479l49.8433533,45.4266968L390.0280762,381.7067261z M118.6493759,378.0777588l-3.752739-4.3659973l51.1598969-43.9301147l3.7527313,4.3659973L118.6493759,378.0777588z M401.4607239,368.2823792l-53.9674377-40.4361877l3.4545593-4.6135559l53.9674072,40.4361877L401.4607239,368.2823792z M106.6400452,363.055542l-3.274498-4.7373352l55.4724503-38.3488159l3.2745056,4.7373352L106.6400452,363.055542z M411.5542908,353.8228149l-57.5907593-35.0799561l2.9931946-4.9173889l57.5907593,35.0799561L411.5542908,353.8228149z M96.2707825,346.8518372l-2.7625046-5.0524292l59.1745529-32.3343201l2.7625122,5.0524292L96.2707825,346.8518372z M420.2131653,338.4630127l-60.6908569-29.3973694l2.5093384-5.1874695l60.6908264,29.3973999L420.2131653,338.4630127z M87.6456757,329.6634827l-2.2167587-5.3224487l62.2324448-25.9709778l2.2167664,5.3224487L87.6456757,329.6634827z M427.358551,322.343689l-63.228302-23.4447632l2.0029602-5.4012451l63.228302,23.4447632L427.358551,322.343689z M80.8688049,311.664978l-1.6485062-5.5250244l64.6039352-19.3263245l1.6484985,5.5250244L80.8688049,311.664978z M432.9285889,305.6166992l-65.1806335-17.2783508l1.4740906-5.5700073l65.1806335,17.2783508L432.9285889,305.6166992z M76.010498,293.0475769l-1.0633698-5.6600647l66.2721252-12.467865l1.0633698,5.6600647L76.010498,293.0475769z M436.8726196,288.4283752l-66.5422058-10.948761l0.93396-5.6825562l66.5422058,10.948761L436.8726196,288.4283752z M73.1242065,274.0307007l-0.46698-5.7388306l67.2117157-5.46875l0.46698,5.7388L73.1242065,274.0307007z M439.1456299,270.9474792l-67.2792358-4.5235291l0.3825989-5.7500916l67.2792358,4.5235596L439.1456299,270.9474792z M139.6551514,256.4035034l-67.4142685-1.5838013l0.135025-5.761322l67.4142685,1.5838013L139.6551514,256.4035034z M372.333374,255.2698059l-0.1687927-5.761322l67.4030151-1.946701l0.1687927,5.7613373L372.333374,255.2698059z M140.2515259,244.2394562l-66.8797607-8.6222992l0.7370453-5.7163086l66.8797607,8.6222992L140.2515259,244.2394562z M371.6132202,243.1141968l-0.7651672-5.7106781l66.8347473-8.9823914l0.7651672,5.7106934L371.6132202,243.1141968z M142.1166534,232.2020111l-65.6110382-15.565155l1.3278046-5.6037903l65.6110382,15.565155L142.1166534,232.2020111z M369.6383972,231.0992432l-1.3615723-5.5981598l65.5238342-15.9196014l1.3615723,5.5981598L369.6383972,231.0992432z M145.2279968,220.4289856l-63.6277771-22.3392029l1.9073181-5.4350128l63.6277618,22.3392181L145.2279968,220.4289856z M366.408905,219.3571777l-1.9354553-5.4237518l63.5039978-22.6824036l1.9354248,5.4237366L366.408905,219.3571777z M149.5518036,209.0441742l-60.9412155-28.8657074l2.4643173-5.2043152l60.9412079,28.8656921L149.5518036,209.0441742z M361.9753723,208.0173798l-2.4980774-5.1930695l60.786499-29.1948547l2.4980774,5.1930695L361.9753723,208.0173798z M155.0430603,198.1769867l-57.5907516-35.0771332l2.9988174-4.9230042l57.590744,35.0771332L155.0430603,198.1769867z M356.382843,197.2036438l-3.026947-4.9061432l57.3994446-35.389389l3.026947,4.9061279L356.382843,197.2036438z M161.6398926,187.9399414l-53.607338-40.9059753l3.493927-4.5798035l53.607338,40.9059753L161.6398926,187.9399414z M349.6819153,187.0341034l-3.5220642-4.5629272l53.3879089-41.1957245l3.5220642,4.5629272L349.6819153,187.0341034z M169.2719574,178.4512024l-49.0387802-46.2875366l3.9552841-4.1915894l49.0387878,46.2875366L169.2719574,178.4512024z M325.4269714,162.6553802l-4.7035828-3.33078l39.0127258-55.0054626l4.7035828,3.3307648L325.4269714,162.6553802z M315.2883911,155.9094391l-5.0186768-2.8243866l33.0432434-58.7779083l5.0186462,2.8244019L315.2883911,155.9094391z M203.4611816,165.2687988c-69.7362061,40.2037354-69.736145,141.258667,0.000061,181.4623413C273.1974487,386.9348755,360.8409424,336.4074097,360.8409424,256S273.1973877,125.0651245,203.4611816,165.2687988z M245.2666016,274.5358887c-14.2467041-8.2133789-14.2467651-28.8583984,0-37.0717773C259.5133667,229.2506714,277.418457,239.5731812,277.418457,256S259.5133667,282.7492676,245.2666016,274.5358887z M283.6814575,241.7080078c-24.4349365-14.0870361-24.4349365-49.4957886,0-63.5828247s55.1444702,3.6173706,55.1444702,31.7913818C338.8259277,238.0906372,308.1164551,255.7950439,283.6814575,241.7080078z"/>
</svg>

<svg xmlns="http://www.w3.org/2000/svg" viewBox="0 0 512 512"><path fill="#097291" d="M127.711 477.547c-170.281-98.17-170.281-344.925 0-443.094S512 59.662 512 256 297.993 575.716 127.711 477.547M462.954 256c0-158.723-173.007-258.463-310.664-179.102s-137.658 278.842 0 358.203S462.954 414.722 462.954 256m-72.926 125.707-49.843-45.427 3.882-4.253 49.843 45.426zm-271.379-3.63-3.752-4.365 51.16-43.93 3.752 4.366zm282.812-9.795-53.968-40.436 3.455-4.613 53.967 40.436zm-294.821-5.226-3.274-4.738 55.472-38.349 3.275 4.738zm304.914-9.233-57.59-35.08 2.993-4.918 57.59 35.08zm-315.283-6.971-2.763-5.053 59.175-32.334 2.762 5.053zm323.942-8.389-60.69-29.397 2.509-5.188 60.69 29.398zm-332.567-8.8-2.217-5.322 62.232-25.97 2.217 5.322zm339.713-7.32L364.13 298.9l2.003-5.401 63.229 23.444zm-346.49-10.678-1.649-5.525 64.604-19.326 1.649 5.525zm352.06-6.048-65.181-17.279 1.474-5.57 65.18 17.279zM76.01 293.047l-1.063-5.66 66.272-12.467 1.064 5.66zm360.863-4.619L370.33 277.48l.934-5.683 66.543 10.949zM73.124 274.031l-.467-5.74 67.212-5.468.467 5.739zm366.022-3.084-67.28-4.523.383-5.75 67.28 4.523zm-299.49-14.543L72.24 254.82l.135-5.762 67.414 1.584zm232.677-1.134-.168-5.762 67.403-1.946.168 5.761zm-232.081-11.03-66.88-8.623.737-5.716 66.88 8.622zm231.361-1.126-.765-5.71 66.835-8.983.765 5.71zm-229.496-10.912-65.611-15.565 1.327-5.604 65.611 15.565zm227.521-1.103-1.361-5.598 65.524-15.92 1.361 5.599zm-224.41-10.67L81.6 198.089l1.908-5.434 63.627 22.339zm221.18-1.072-1.935-5.424 63.504-22.682 1.936 5.424zm-216.856-10.313L88.61 180.178l2.464-5.204 60.941 28.866zm212.423-1.027-2.498-5.193 60.787-29.195 2.498 5.194zm-206.932-9.84L97.453 163.1l2.998-4.923 57.59 35.077zm201.34-.973-3.027-4.906 57.4-35.39 3.026 4.906zM161.64 187.94l-53.607-40.906 3.493-4.58 53.608 40.906zm188.042-.906-3.522-4.563 53.388-41.196 3.522 4.563zm-180.41-8.583-49.039-46.287 3.955-4.192 49.04 46.288zm156.155-15.796-4.704-3.33 39.013-55.006 4.704 3.33zm-10.139-6.746-5.018-2.824 33.043-58.778 5.019 2.825zm-111.827 9.36c-69.736 40.204-69.736 141.258 0 181.462s157.38-10.324 157.38-90.731-87.644-130.935-157.38-90.731m41.806 109.267c-14.247-8.213-14.247-28.859 0-37.072s32.151 2.11 32.151 18.536-17.905 26.75-32.151 18.536m38.414-32.828c-24.434-14.087-24.434-49.496 0-63.583s55.145 3.618 55.145 31.792-30.71 45.878-55.145 31.791" data-iconColor="PhotoRec"/></svg>
